X:141
T:Montreal. RHu.141
S:R.Hughes MS,1823,Whitchurch,Shrops.
A:Whitchurch, Shropshire
Z:Tony Weatherall 2006
M:6/8
L:1/8
Q:3/8=120
R:Jig
K:D
A|dcd e2f|d2fa3|(ag)e (gf)d|(fe)B dcA|!
dcd e2f|d2fa3|age B2c|d3d2:|!
|:(c/d/)|e2e dcB|ABc def|g2B fed|cde A2c|!
e2e dcB|ABc def|gag fed|a3″”a2|]

